packages/bpk-svgs/src/icons/sm/transmission-manual.svg

<svg xmlns="http://www.w3.org/2000/svg" viewBox="0 0 18 18" enable-background="new 0 0 18 18"><path d="M9 1c-4.418 0-8 3.582-8 8s3.582 8 8 8 8-3.582 8-8-3.582-8-8-8zm4.5 7v1.001c0 .552-.447.999-.999.999h-2.501v2.5c0 .552-.448 1-1 1s-1-.448-1-1v-2.5h-1.5v2.5c0 .552-.448 1-1 1s-1-.448-1-1v-7c0-.552.448-1 1-1s1 .448 1 1v2.5h1.5v-2.5c0-.552.448-1 1-1s1 .448 1 1v2.5h1.5v-2.5c0-.552.448-1 1-1s1 .448 1 1v2.5z"/></svg>

<svg xmlns="http://www.w3.org/2000/svg" viewBox="0 0 18 18"><path d="M9 1a8 8 0 1 0 0 16A8 8 0 0 0 9 1zm4.5 7v1.001a.999.999 0 0 1-.999.999H10v2.5a1 1 0 0 1-2 0V10H6.5v2.5a1 1 0 0 1-2 0v-7a1 1 0 0 1 2 0V8H8V5.5a1 1 0 0 1 2 0V8h1.5V5.5a1 1 0 0 1 2 0V8z"/></svg>
